!!!!SEGMENT: pl-wnifc--13846--001-125_anonim--piesni-polskie-i-ruskie-ludu-galicyjskiego-125-bidum-sobi-kupyla.krn
!!!kernsource:
!!!cenid: 18xx:3347
!!!COM: Anonim
!!!COM-rismID: pe30004985
!!!CDT:
!!!CNT:
!!!GTL: Pieśni polskie i ruskie ludu galicyjskiego
!!!OTL: 125. Bidum sobi kupyła
!!!OMV: 125
!!!PDT: 1833
!!!AGN:
!!!YEC: Copyright 2022 Narodowy Instytut Fryderyka Chopina (https://polishscores.org)
!!!YEM: License CC-BY-4.0 (https://creativecommons.org/licenses/by/4.0)
!!!SMS-siglum: PL-Wnifc
!!!SMS-shelfmark: 13846
!!!SMS-shelfwork: 001-125 G
!!!NIFC-rismSourceID: 1001036701
!!!NIFC-rismChildID: 1001039631
!!!NIFC-islandoraID: nifc:210326
!!!URL-pdf-islandora: https://repozytorium.nifc.pl/islandora/object/nifc%3A210326/datastream/PDF/view
!!!URL-scan:
!!!IIIF:
!!!ONB-nifc:
!!!OMD: Allegretto
!!!AIN: 1 piano 1 vox
!!!key: d
**kern	**kern	**kern	**text
*part2	*part2	*part1	*
*staff3	*staff2	*staff1	*
*I"FORTEPIAN.	*I"FORTEPIAN.	*I"GŁOS.	*
*Ipiano	*Ipiano	*Ivox	*
*ICklav	*ICklav	*ICvox	*
*IGacmp	*IGacmp	*IGsolo	*
*clefF4	*clefG2	*clefG2	*
*k[b-]	*k[b-]	*k[b-]	*
*d:	*d:	*d:	*
*M2/4	*M2/4	*M2/4	*
=1	=1	=1	=1
!	!LO:TX:a:t=E.207.:rj	!	!
8D\L	(>16dd\LL	(>16dd\LL	Bi-
.	16ee\JJ)	16ee\JJ)	.
8A\ 8F\	(>16ff\LL	(>16ff\LL	-dum
.	16gg\JJ)	16gg\JJ)	.
8D\	(>16ff\LL	(>16ff\LL	so-
.	16ee\JJ)	16ee\JJ)	.
8A\J 8F\	(>16dd\LL	(>16dd\LL	-bi
.	16cc#X\JJ)	16cc#X\JJ)	.
=2	=2	=2	=2
8D\L	(>8dd\L	8dd\	ku-
8d\ 8A\ 8F\	16ff\L	(>16ff\LL	-py-
.	16ee\JJ)	16ee\JJ)	.
8G\	8.ee\L	(>8.ee\L	-ła,
8e\J 8B-\ 8G\	.	.	.
.	16dd\Jk	16dd\Jk)	.
!!LO:LB:g=original
=3	=3	=3	=3
8A\L	8cc#X\L	8cc#X\	tu
8g\ 8e\	8cc#\	8cc#\	za
.	(16qdd/LL	.	.
.	16qcc#/JJ)	.	.
8A\	8a\	8a\	swo-
8g\J 8e\	8cc#\J	8cc#\	-ji
=4	=4	=4	=4
8f\L 8d\	4dd\	4dd\	hro-
(8D\	.	.	.
8F\	4a/	4a/	-szi,
8A\J)	.	.	.
=5	=5	=5	=5
8D\L	(>16dd\LL	(>16dd\LL	ka-
.	16ee\)	16ee\JJ)	.
8A\ 8F\	(>16ff\	(>16ff\LL	-żut
.	16gg\JJ)	16gg\JJ)	.
8D\	(>16ff\LL	(>16ff\LL	bi-
.	16ee\)	16ee\JJ)	.
8A\J 8F\	(>16dd\	(>16dd\LL	-du
.	16cc#X\JJ)	16cc#X\JJ)	.
!!LO:PB:g=original
=6	=6	=6	=6
*^	*	*	*
8D\L	4ryy	8dd\L	8dd\	lu-
8d\J 8A\ 8F\	.	(>16ff\L	(>16ff\LL	-by-
.	.	16ee\JJ)	16ee\JJ)	.
8GG/L	4GG\	8.ee\L	(>8.ee\L	-ty,
8G/J 8E/ 8BB-/	.	.	.	.
.	.	16dd\Jk	16dd\Jk)	.
=7	=7	=7	=7	=7
8AA/L	4AA\	8cc#X\L	8cc#X\	bi-
8A/J 8G/ 8E/	.	8cc#\	8cc#\	-da
.	.	(16qdd/LL	.	.
.	.	16qcc#/JJ)	.	.
8AA/L	4AA\	8a\	8a/	ne
8A/J 8G/ 8E/	.	8cc#\J	8cc#\	cho-
*v	*v	*	*	*
=8	=8	=8	=8
8F\L 8D\	4dd\	4dd\	-ro-
8A\	.	.	.
8F\ 8D\	8dd\	8dd\	-szy
8A\J	8r	8r	.
!!LO:LB:g=original
=9||	=9||	=9||	=9||
!	!	!LO:N:vis=8.	!
(>16F\LL 16D\	8dd\|L	8dd\	i
16A\)	.	.	.
(>16F\ 16D\	8dd\|J	8dd\	kry-
16A\JJ)	.	.	.
(>16G\LL 16E\ 16D\	(>8.cc#X\L	(>8.cc#X\L	-wyj,
16A\)	.	.	.
(>16G\ 16E\ 16D\	.	.	.
16A\JJ)	16a\Jk)	16a\Jk)	.
=10	=10	=10	=10
16F\LL 16D\	8dd\|L	8dd\	i
16A\	.	.	.
16F\ 16D\	8dd\|J	8dd\	śli-
16A\JJ	.	.	.
16G\LL 16E\ 16D\	(>8.cc#X\L	(>8.cc#X\L	-pyj,
16A\	.	.	.
16G\ 16E\ 16D\	.	.	.
16A\JJ	16a\Jk)	16a\Jk)	.
=11	=11	=11	=11
16F\LL 16D\	(>16dd\LL	(>16dd\LL	szcze
16A\	16ee\	16ee\	.
16F\ 16D\	16ff\)	16ff\JJ	.
16A\JJ	16gg\|JJ	16gg\|)	do
16E\LL 16C#X\	(>8.aa\L	8.aa\	to-
16A\	.	.	.
16E\ 16C#\	.	.	.
16A\JJ	16gg\Jk)	16gg\	-ho
!!LO:LB:g=original
=12	=12	=12	=12
(>16F\LL 16D\	8ff\L	8ff\	hor-
16A\)	.	.	.
(>16F\ 16D\	(>16ff\L	(>16ff\LL	-ba-
16A\JJ)	16ee\JJ)	16ee\JJ)	.
*rep	*	*	*
(>16F\LL 16D\	8dd\	8dd\	-tyj,
16A\)	.	.	.
(>16F\ 16D\	8r	8r	.
16A\JJ)	.	.	.
*Xrep	*	*	*
=13	=13	=13	=13
16F\LL 16D\	(>16dd\LL	(>16dd\LL	jak
16A\	16ee\	16ee\	.
16F\ 16D\	16ff\	16ff\JJ	.
16A\JJ	16gg\|JJ)	16gg\|)	sia
*rep	*	*	*
16F\LL 16D\	8aa\L	8aa\L	sta-
16A\	.	.	.
16F\ 16D\	8aa\J	8aa\J	-ne
16A\JJ	.	.	.
*Xrep	*	*	*
=14	=14	=14	=14
(>16F\LL 16D\	8gg#X\L	8gg#X\	tri-
16B-\)	.	.	.
(>16F\ 16D\	8gg#\J	8gg#\	-po-
16B-\JJ)	.	.	.
*rep	*	*	*
(>16A\LL 16E\	8.aa\L	8.aa\	-ta-
16c#X\)	.	.	.
(>16A\ 16E\	.	.	.
16c#\JJ)	16ggn\Jk	16ggn\	-ty,
*Xrep	*	*	*
!!LO:LB:g=original
=15	=15	=15	=15
(>16D\LL	8ff\L	8ff\	tre-
16F\)	.	.	.
(>16A\	8ff\J	8ff\	-ba
16d\JJ)	.	.	.
(>16G\LL 16AA\	(>16ee\LL	(>16ee\LL	z_ha-
16A\)	16dd\J)	16dd\JJ)	.
(>16G\ 16AA\	8cc#X\J	8cc#X\	-ty
16A\JJ)	.	.	.
=16	=16	=16	=16
(>16F\LL 16D\	8dd\L	8dd\	u-
16A\)	.	.	.
16F\ 16D\	8a\J	8a/	-ti-
16A\JJ	.	.	.
4F\ 4D\	8.dd\L	8.dd\	-ka-
.	16dd\Jk	16dd\	-ty.
==	==	==	==
*-	*-	*-	*-
!!!system-decoration: <s1>{(s2,s3)}
!!!RDF**kern: > = above
!!!RDF**kern: < = below
!!!RDF**kern: | = vertical stroke
!!!ENC: Andrzej Kubiczek
!!!END: 2021-11-11
